assets/luts/ReSyne_Display_v1.cube
TITLE "ReSyne Display (Magnitude/LogFreq/PhaseCos)"
LUT_3D_SIZE 33
DOMAIN_MIN 0.0 0.0 0.0
DOMAIN_MAX 1.0 1.0 1.0
0.000032 0.000024 0.000032
0.000041 0.000031 0.000041
0.000052 0.000039 0.000052
0.000067 0.000050 0.000067
0.000087 0.000065 0.000087
0.000111 0.000084 0.000111
0.000143 0.000107 0.000143
0.000184 0.000138 0.000184
0.000237 0.000178 0.000237
0.000305 0.000229 0.000305
0.000392 0.000294 0.000392
0.000505 0.000379 0.000505
0.000649 0.000487 0.000649
0.000835 0.000626 0.000835
0.001075 0.000806 0.001075
0.001382 0.001037 0.001382
0.001778 0.001333 0.001778
0.002288 0.001715 0.002288
0.002943 0.002206 0.002943
0.003786 0.002836 0.003786
0.004870 0.003645 0.004870
0.006264 0.004684 0.006264
0.008058 0.006012 0.008058
0.010366 0.007708 0.010366
0.013335 0.009859 0.013335
0.017154 0.012563 0.017154
0.022067 0.015906 0.022067
0.028387 0.019918 0.028387
0.036517 0.024466 0.036517
0.046976 0.029012 0.046976
0.060430 0.032082 0.060430
0.077737 0.030117 0.077737
0.100000 0.015000 0.100000
0.000030 0.000024 0.000032
0.000039 0.000031 0.000041
0.000050 0.000039 0.000052
0.000065 0.000050 0.000067
0.000083 0.000065 0.000087
0.000107 0.000084 0.000111
0.000138 0.000107 0.000143
0.000178 0.000138 0.000184
0.000228 0.000178 0.000237
0.000294 0.000229 0.000305
0.000378 0.000294 0.000392
0.000486 0.000379 0.000505
0.000626 0.000487 0.000649
0.000805 0.000626 0.000835
0.001035 0.000806 0.001075
0.001332 0.001037 0.001382
0.001713 0.001333 0.001778
0.002204 0.001715 0.002288
0.002835 0.002206 0.002943
0.003647 0.002836 0.003786
0.004691 0.003645 0.004870
0.006034 0.004684 0.006264
0.007760 0.006012 0.008058
0.009979 0.007708 0.010366
0.012828 0.009859 0.013335
0.016485 0.012563 0.017154
0.021169 0.015906 0.022067
0.027152 0.019918 0.028387
0.034760 0.024466 0.036517
0.044356 0.029012 0.046976
0.056296 0.032082 0.060430
0.070792 0.030117 0.077737
0.087604 0.015000 0.100000
0.000029 0.000024 0.000032
0.000038 0.000031 0.000041
0.000049 0.000039 0.000052
0.000062 0.000050 0.000067
0.000080 0.000065 0.000087
0.000103 0.000084 0.000111
0.000133 0.000107 0.000143
0.000171 0.000138 0.000184
0.000220 0.000178 0.000237
0.000283 0.000229 0.000305
0.000364 0.000294 0.000392
0.000468 0.000379 0.000505
0.000602 0.000487 0.000649
0.000774 0.000626 0.000835
0.000996 0.000806 0.001075
0.001282 0.001037 0.001382
0.001649 0.001333 0.001778
0.002121 0.001715 0.002288
0.002728 0.002206 0.002943
0.003509 0.002836 0.003786
0.004513 0.003645 0.004870
0.005803 0.004684 0.006264
0.007462 0.006012 0.008058
0.009591 0.007708 0.010366
0.012321 0.009859 0.013335
0.015815 0.012563 0.017154
0.020270 0.015906 0.022067
0.025917 0.019918 0.028387
0.033002 0.024466 0.036517
0.041736 0.029012 0.046976
0.052162 0.032082 0.060430
0.063847 0.030117 0.077737
0.075208 0.015000 0.100000
0.000028 0.000024 0.000032
0.000036 0.000031 0.000041
0.000047 0.000039 0.000052
0.000060 0.000050 0.000067
0.000077 0.000065 0.000087
0.000099 0.000084 0.000111
0.000128 0.000107 0.000143
0.000164 0.000138 0.000184
0.000211 0.000178 0.000237
0.000272 0.000229 0.000305
0.000349 0.000294 0.000392
0.000450 0.000379 0.000505
0.000578 0.000487 0.000649
0.000744 0.000626 0.000835
0.000957 0.000806 0.001075
0.001231 0.001037 0.001382
0.001584 0.001333 0.001778
0.002037 0.001715 0.002288
0.002620 0.002206 0.002943
0.003370 0.002836 0.003786
0.004334 0.003645 0.004870
0.005573 0.004684 0.006264
0.007163 0.006012 0.008058
0.009203 0.007708 0.010366
0.011814 0.009859 0.013335
0.015146 0.012563 0.017154
0.019372 0.015906 0.022067
0.024682 0.019918 0.028387
0.031245 0.024466 0.036517
0.039117 0.029012 0.046976
0.048027 0.032082 0.060430
0.056903 0.030117 0.077737
0.062813 0.015000 0.100000
0.000027 0.000024 0.000032
0.000035 0.000031 0.000041
0.000045 0.000039 0.000052
0.000057 0.000050 0.000067
0.000074 0.000065 0.000087
0.000095 0.000084 0.000111
0.000122 0.000107 0.000143
0.000157 0.000138 0.000184
0.000203 0.000178 0.000237
0.000261 0.000229 0.000305
0.000335 0.000294 0.000392
0.000431 0.000379 0.000505
0.000555 0.000487 0.000649
0.000714 0.000626 0.000835
0.000918 0.000806 0.001075
0.001181 0.001037 0.001382
0.001519 0.001333 0.001778
0.001954 0.001715 0.002288
0.002513 0.002206 0.002943
0.003232 0.002836 0.003786
0.004155 0.003645 0.004870
0.005342 0.004684 0.006264
0.006865 0.006012 0.008058
0.008816 0.007708 0.010366
0.011307 0.009859 0.013335
0.014476 0.012563 0.017154
0.018473 0.015906 0.022067
0.023447 0.019918 0.028387
0.029488 0.024466 0.036517
0.036497 0.029012 0.046976
0.043893 0.032082 0.060430
0.049958 0.030117 0.077737
0.050417 0.015000 0.100000
0.000026 0.000024 0.000032
0.000033 0.000031 0.000041
0.000043 0.000039 0.000052
0.000055 0.000050 0.000067
0.000071 0.000065 0.000087
0.000091 0.000084 0.000111
0.000117 0.000107 0.000143
0.000151 0.000138 0.000184
0.000194 0.000178 0.000237
0.000249 0.000229 0.000305
0.000321 0.000294 0.000392
0.000413 0.000379 0.000505
0.000531 0.000487 0.000649
0.000683 0.000626 0.000835
0.000879 0.000806 0.001075
0.001130 0.001037 0.001382
0.001454 0.001333 0.001778
0.001870 0.001715 0.002288
0.002405 0.002206 0.002943
0.003093 0.002836 0.003786
0.003977 0.003645 0.004870
0.005112 0.004684 0.006264
0.006567 0.006012 0.008058
0.008428 0.007708 0.010366
0.010801 0.009859 0.013335
0.013806 0.012563 0.017154
0.017575 0.015906 0.022067
0.022212 0.019918 0.028387
0.027730 0.024466 0.036517
0.033877 0.029012 0.046976
0.039759 0.032082 0.060430
0.043014 0.030117 0.077737
0.038021 0.015000 0.100000
0.000025 0.000024 0.000032
0.000032 0.000031 0.000041
0.000041 0.000039 0.000052
0.000053 0.000050 0.000067
0.000068 0.000065 0.000087
0.000087 0.000084 0.000111
0.000112 0.000107 0.000143
0.000144 0.000138 0.000184
0.000185 0.000178 0.000237
0.000238 0.000229 0.000305
0.000307 0.000294 0.000392
0.000394 0.000379 0.000505
0.000507 0.000487 0.000649
0.000653 0.000626 0.000835
0.000839 0.000806 0.001075
0.001080 0.001037 0.001382
0.001389 0.001333 0.001778
0.001787 0.001715 0.002288
0.002298 0.002206 0.002943
0.002955 0.002836 0.003786
0.003798 0.003645 0.004870
0.004881 0.004684 0.006264
0.006268 0.006012 0.008058
0.008040 0.007708 0.010366
0.010294 0.009859 0.013335
0.013137 0.012563 0.017154
0.016676 0.015906 0.022067
0.020977 0.019918 0.028387
0.025973 0.024466 0.036517
0.031258 0.029012 0.046976
0.035625 0.032082 0.060430
0.036069 0.030117 0.077737
0.025625 0.015000 0.100000
0.000024 0.000024 0.000032
0.000031 0.000031 0.000041
0.000039 0.000040 0.000052
0.000050 0.000051 0.000067
0.000065 0.000065 0.000087
0.000084 0.000084 0.000111
0.000107 0.000108 0.000143
0.000138 0.000139 0.000184
0.000178 0.000179 0.000237
0.000229 0.000230 0.000305
0.000294 0.000296 0.000392
0.000379 0.000381 0.000505
0.000487 0.000490 0.000649
0.000626 0.000631 0.000835
0.000806 0.000811 0.001075
0.001037 0.001044 0.001382
0.001333 0.001343 0.001778
0.001715 0.001727 0.002288
0.002206 0.002221 0.002943
0.002836 0.002856 0.003786
0.003645 0.003671 0.004870
0.004684 0.004716 0.006264
0.006012 0.006055 0.008058
0.007708 0.007763 0.010366
0.009859 0.009932 0.013335
0.012563 0.012659 0.017154
0.015906 0.016034 0.022067
0.019918 0.020094 0.028387
0.024466 0.024717 0.036517
0.029012 0.029386 0.046976
0.032082 0.032672 0.060430
0.030117 0.031109 0.077737
0.015000 0.016771 0.100000
0.000024 0.000025 0.000032
0.000031 0.000032 0.000041
0.000039 0.000041 0.000052
0.000050 0.000053 0.000067
0.000065 0.000069 0.000087
0.000084 0.000088 0.000111
0.000107 0.000113 0.000143
0.000138 0.000146 0.000184
0.000178 0.000188 0.000237
0.000229 0.000241 0.000305
0.000294 0.000311 0.000392
0.000379 0.000400 0.000505
0.000487 0.000514 0.000649
0.000626 0.000661 0.000835
0.000806 0.000851 0.001075
0.001037 0.001094 0.001382
0.001333 0.001408 0.001778
0.001715 0.001810 0.002288
0.002206 0.002328 0.002943
0.002836 0.002994 0.003786
0.003645 0.003849 0.004870
0.004684 0.004947 0.006264
0.006012 0.006353 0.008058
0.007708 0.008151 0.010366
0.009859 0.010438 0.013335
0.012563 0.013328 0.017154
0.015906 0.016933 0.022067
0.019918 0.021330 0.028387
0.024466 0.026475 0.036517
0.029012 0.032006 0.046976
0.032082 0.036806 0.060430
0.030117 0.038053 0.077737
0.015000 0.029167 0.100000
0.000024 0.000026 0.000032
0.000031 0.000034 0.000041
0.000039 0.000043 0.000052
0.000050 0.000056 0.000067
0.000065 0.000072 0.000087
0.000084 0.000092 0.000111
0.000107 0.000119 0.000143
0.000138 0.000153 0.000184
0.000178 0.000196 0.000237
0.000229 0.000253 0.000305
0.000294 0.000325 0.000392
0.000379 0.000418 0.000505
0.000487 0.000538 0.000649
0.000626 0.000692 0.000835
0.000806 0.000890 0.001075
0.001037 0.001145 0.001382
0.001333 0.001472 0.001778
0.001715 0.001894 0.002288
0.002206 0.002436 0.002943
0.002836 0.003133 0.003786
0.003645 0.004028 0.004870
0.004684 0.005178 0.006264
0.006012 0.006652 0.008058
0.007708 0.008539 0.010366
0.009859 0.010945 0.013335
0.012563 0.013998 0.017154
0.015906 0.017831 0.022067
0.019918 0.022565 0.028387
0.024466 0.028232 0.036517
0.029012 0.034626 0.046976
0.032082 0.040941 0.060430
0.030117 0.044998 0.077737
0.015000 0.041563 0.100000
0.000024 0.000027 0.000032
0.000031 0.000035 0.000041
0.000039 0.000045 0.000052
0.000050 0.000058 0.000067
0.000065 0.000075 0.000087
0.000084 0.000096 0.000111
0.000107 0.000124 0.000143
0.000138 0.000159 0.000184
0.000178 0.000205 0.000237
0.000229 0.000264 0.000305
0.000294 0.000339 0.000392
0.000379 0.000436 0.000505
0.000487 0.000561 0.000649
0.000626 0.000722 0.000835
0.000806 0.000929 0.001075
0.001037 0.001195 0.001382
0.001333 0.001537 0.001778
0.001715 0.001977 0.002288
0.002206 0.002543 0.002943
0.002836 0.003271 0.003786
0.003645 0.004206 0.004870
0.004684 0.005408 0.006264
0.006012 0.006950 0.008058
0.007708 0.008926 0.010366
0.009859 0.011452 0.013335
0.012563 0.014667 0.017154
0.015906 0.018730 0.022067
0.019918 0.023800 0.028387
0.024466 0.029990 0.036517
0.029012 0.037246 0.046976
0.032082 0.045075 0.060430
0.030117 0.051943 0.077737
0.015000 0.053958 0.100000
0.000024 0.000028 0.000032
0.000031 0.000037 0.000041
0.000039 0.000047 0.000052
0.000050 0.000061 0.000067
0.000065 0.000078 0.000087
0.000084 0.000100 0.000111
0.000107 0.000129 0.000143
0.000138 0.000166 0.000184
0.000178 0.000214 0.000237
0.000229 0.000275 0.000305
0.000294 0.000354 0.000392
0.000379 0.000455 0.000505
0.000487 0.000585 0.000649
0.000626 0.000753 0.000835
0.000806 0.000968 0.001075
0.001037 0.001246 0.001382
0.001333 0.001602 0.001778
0.001715 0.002061 0.002288
0.002206 0.002651 0.002943
0.002836 0.003410 0.003786
0.003645 0.004385 0.004870
0.004684 0.005639 0.006264
0.006012 0.007249 0.008058
0.007708 0.009314 0.010366
0.009859 0.011959 0.013335
0.012563 0.015337 0.017154
0.015906 0.019628 0.022067
0.019918 0.025035 0.028387
0.024466 0.031747 0.036517
0.029012 0.039865 0.046976
0.032082 0.049209 0.060430
0.030117 0.058887 0.077737
0.015000 0.066354 0.100000
0.000024 0.000030 0.000032
0.000031 0.000038 0.000041
0.000039 0.000049 0.000052
0.000050 0.000063 0.000067
0.000065 0.000081 0.000087
0.000084 0.000104 0.000111
0.000107 0.000134 0.000143
0.000138 0.000173 0.000184
0.000178 0.000222 0.000237
0.000229 0.000286 0.000305
0.000294 0.000368 0.000392
0.000379 0.000473 0.000505
0.000487 0.000609 0.000649
0.000626 0.000783 0.000835
0.000806 0.001007 0.001075
0.001037 0.001296 0.001382
0.001333 0.001667 0.001778
0.001715 0.002144 0.002288
0.002206 0.002758 0.002943
0.002836 0.003548 0.003786
0.003645 0.004564 0.004870
0.004684 0.005869 0.006264
0.006012 0.007547 0.008058
0.007708 0.009702 0.010366
0.009859 0.012466 0.013335
0.012563 0.016007 0.017154
0.015906 0.020527 0.022067
0.019918 0.026270 0.028387
0.024466 0.033505 0.036517
0.029012 0.042485 0.046976
0.032082 0.053343 0.060430
0.030117 0.065832 0.077737
0.015000 0.078750 0.100000
0.000024 0.000031 0.000032
0.000031 0.000040 0.000041
0.000039 0.000051 0.000052
0.000050 0.000066 0.000067
0.000065 0.000084 0.000087
0.000084 0.000108 0.000111
0.000107 0.000140 0.000143
0.000138 0.000180 0.000184
0.000178 0.000231 0.000237
0.000229 0.000297 0.000305
0.000294 0.000382 0.000392
0.000379 0.000492 0.000505
0.000487 0.000632 0.000649
0.000626 0.000814 0.000835
0.000806 0.001047 0.001075
0.001037 0.001346 0.001382
0.001333 0.001732 0.001778
0.001715 0.002228 0.002288
0.002206 0.002866 0.002943
0.002836 0.003687 0.003786
0.003645 0.004742 0.004870
0.004684 0.006100 0.006264
0.006012 0.007845 0.008058
0.007708 0.010089 0.010366
0.009859 0.012973 0.013335
0.012563 0.016676 0.017154
0.015906 0.021426 0.022067
0.019918 0.027505 0.028387
0.024466 0.035262 0.036517
0.029012 0.045105 0.046976
0.032082 0.057477 0.060430
0.030117 0.072776 0.077737
0.015000 0.091146 0.100000
0.000024 0.000032 0.000031
0.000031 0.000041 0.000040
0.000039 0.000052 0.000052
0.000050 0.000067 0.000067
0.000065 0.000087 0.000086
0.000084 0.000111 0.000110
0.000107 0.000143 0.000142
0.000138 0.000184 0.000182
0.000178 0.000237 0.000235
0.000229 0.000305 0.000302
0.000294 0.000392 0.000388
0.000379 0.000505 0.000500
0.000487 0.000649 0.000643
0.000626 0.000835 0.000827
0.000806 0.001075 0.001063
0.001037 0.001382 0.001368
0.001333 0.001778 0.001760
0.001715 0.002288 0.002264
0.002206 0.002943 0.002912
0.002836 0.003786 0.003746
0.003645 0.004870 0.004819
0.004684 0.006264 0.006198
0.006012 0.008058 0.007973
0.007708 0.010366 0.010256
0.009859 0.013335 0.013190
0.012563 0.017154 0.016963
0.015906 0.022067 0.021811
0.019918 0.028387 0.028034
0.024466 0.036517 0.036015
0.029012 0.046976 0.046227
0.032082 0.060430 0.059248
0.030117 0.077737 0.075752
0.015000 0.100000 0.096458
0.000024 0.000032 0.000030
0.000031 0.000041 0.000039
0.000039 0.000052 0.000050
0.000050 0.000067 0.000064
0.000065 0.000087 0.000083
0.000084 0.000111 0.000106
0.000107 0.000143 0.000137
0.000138 0.000184 0.000176
0.000178 0.000237 0.000226
0.000229 0.000305 0.000291
0.000294 0.000392 0.000374
0.000379 0.000505 0.000481
0.000487 0.000649 0.000619
0.000626 0.000835 0.000796
0.000806 0.001075 0.001024
0.001037 0.001382 0.001318
0.001333 0.001778 0.001695
0.001715 0.002288 0.002180
0.002206 0.002943 0.002805
0.002836 0.003786 0.003607
0.003645 0.004870 0.004640
0.004684 0.006264 0.005968
0.006012 0.008058 0.007675
0.007708 0.010366 0.009868
0.009859 0.013335 0.012683
0.012563 0.017154 0.016293
0.015906 0.022067 0.020912
0.019918 0.028387 0.026799
0.024466 0.036517 0.034258
0.029012 0.046976 0.043608
0.032082 0.060430 0.055114
0.030117 0.077737 0.068808
0.015000 0.100000 0.084063
0.000024 0.000032 0.000029
0.000031 0.000041 0.000037
0.000039 0.000052 0.000048
0.000050 0.000067 0.000062
0.000065 0.000087 0.000079
0.000084 0.000111 0.000102
0.000107 0.000143 0.000131
0.000138 0.000184 0.000169
0.000178 0.000237 0.000217
0.000229 0.000305 0.000280
0.000294 0.000392 0.000360
0.000379 0.000505 0.000463
0.000487 0.000649 0.000595
0.000626 0.000835 0.000766
0.000806 0.001075 0.000985
0.001037 0.001382 0.001267
0.001333 0.001778 0.001630
0.001715 0.002288 0.002097
0.002206 0.002943 0.002697
0.002836 0.003786 0.003469
0.003645 0.004870 0.004462
0.004684 0.006264 0.005737
0.006012 0.008058 0.007376
0.007708 0.010366 0.009480
0.009859 0.013335 0.012177
0.012563 0.017154 0.015624
0.015906 0.022067 0.020013
0.019918 0.028387 0.025564
0.024466 0.036517 0.032500
0.029012 0.046976 0.040988
0.032082 0.060430 0.050980
0.030117 0.077737 0.061863
0.015000 0.100000 0.071667
0.000024 0.000032 0.000028
0.000031 0.000041 0.000036
0.000039 0.000052 0.000046
0.000050 0.000067 0.000059
0.000065 0.000087 0.000076
0.000084 0.000111 0.000098
0.000107 0.000143 0.000126
0.000138 0.000184 0.000162
0.000178 0.000237 0.000209
0.000229 0.000305 0.000269
0.000294 0.000392 0.000345
0.000379 0.000505 0.000444
0.000487 0.000649 0.000572
0.000626 0.000835 0.000735
0.000806 0.001075 0.000946
0.001037 0.001382 0.001217
0.001333 0.001778 0.001565
0.001715 0.002288 0.002013
0.002206 0.002943 0.002589
0.002836 0.003786 0.003330
0.003645 0.004870 0.004283
0.004684 0.006264 0.005507
0.006012 0.008058 0.007078
0.007708 0.010366 0.009093
0.009859 0.013335 0.011670
0.012563 0.017154 0.014954
0.015906 0.022067 0.019115
0.019918 0.028387 0.024329
0.024466 0.036517 0.030743
0.029012 0.046976 0.038368
0.032082 0.060430 0.046846
0.030117 0.077737 0.054919
0.015000 0.100000 0.059271
0.000024 0.000032 0.000027
0.000031 0.000041 0.000034
0.000039 0.000052 0.000044
0.000050 0.000067 0.000057
0.000065 0.000087 0.000073
0.000084 0.000111 0.000094
0.000107 0.000143 0.000121
0.000138 0.000184 0.000156
0.000178 0.000237 0.000200
0.000229 0.000305 0.000257
0.000294 0.000392 0.000331
0.000379 0.000505 0.000426
0.000487 0.000649 0.000548
0.000626 0.000835 0.000705
0.000806 0.001075 0.000907
0.001037 0.001382 0.001166
0.001333 0.001778 0.001500
0.001715 0.002288 0.001930
0.002206 0.002943 0.002482
0.002836 0.003786 0.003192
0.003645 0.004870 0.004104
0.004684 0.006264 0.005276
0.006012 0.008058 0.006780
0.007708 0.010366 0.008705
0.009859 0.013335 0.011163
0.012563 0.017154 0.014285
0.015906 0.022067 0.018216
0.019918 0.028387 0.023094
0.024466 0.036517 0.028985
0.029012 0.046976 0.035749
0.032082 0.060430 0.042712
0.030117 0.077737 0.047974
0.015000 0.100000 0.046875
0.000024 0.000032 0.000026
0.000031 0.000041 0.000033
0.000039 0.000052 0.000042
0.000050 0.000067 0.000054
0.000065 0.000087 0.000070
0.000084 0.000111 0.000090
0.000107 0.000143 0.000116
0.000138 0.000184 0.000149
0.000178 0.000237 0.000191
0.000229 0.000305 0.000246
0.000294 0.000392 0.000317
0.000379 0.000505 0.000408
0.000487 0.000649 0.000524
0.000626 0.000835 0.000674
0.000806 0.001075 0.000867
0.001037 0.001382 0.001116
0.001333 0.001778 0.001435
0.001715 0.002288 0.001846
0.002206 0.002943 0.002374
0.002836 0.003786 0.003054
0.003645 0.004870 0.003926
0.004684 0.006264 0.005046
0.006012 0.008058 0.006481
0.007708 0.010366 0.008317
0.009859 0.013335 0.010656
0.012563 0.017154 0.013615
0.015906 0.022067 0.017318
0.019918 0.028387 0.021859
0.024466 0.036517 0.027228
0.029012 0.046976 0.033129
0.032082 0.060430 0.038578
0.030117 0.077737 0.041030
0.015000 0.100000 0.034479
0.000024 0.000032 0.000024
0.000031 0.000041 0.000031
0.000039 0.000052 0.000040
0.000050 0.000067 0.000052
0.000065 0.000087 0.000067
0.000084 0.000111 0.000086
0.000107 0.000143 0.000110
0.000138 0.000184 0.000142
0.000178 0.000237 0.000183
0.000229 0.000305 0.000235
0.000294 0.000392 0.000302
0.000379 0.000505 0.000389
0.000487 0.000649 0.000501
0.000626 0.000835 0.000644
0.000806 0.001075 0.000828
0.001037 0.001382 0.001065
0.001333 0.001778 0.001370
0.001715 0.002288 0.001763
0.002206 0.002943 0.002267
0.002836 0.003786 0.002915
0.003645 0.004870 0.003747
0.004684 0.006264 0.004815
0.006012 0.008058 0.006183
0.007708 0.010366 0.007929
0.009859 0.013335 0.010149
0.012563 0.017154 0.012946
0.015906 0.022067 0.016419
0.019918 0.028387 0.020624
0.024466 0.036517 0.025471
0.029012 0.046976 0.030509
0.032082 0.060430 0.034444
0.030117 0.077737 0.034085
0.015000 0.100000 0.022083
0.000024 0.000032 0.000024
0.000031 0.000041 0.000031
0.000040 0.000052 0.000039
0.000052 0.000067 0.000050
0.000066 0.000087 0.000065
0.000085 0.000111 0.000084
0.000110 0.000143 0.000107
0.000141 0.000184 0.000138
0.000182 0.000237 0.000178
0.000234 0.000305 0.000229
0.000300 0.000392 0.000294
0.000386 0.000505 0.000379
0.000497 0.000649 0.000487
0.000640 0.000835 0.000626
0.000823 0.001075 0.000806
0.001058 0.001382 0.001037
0.001361 0.001778 0.001333
0.001751 0.002288 0.001715
0.002252 0.002943 0.002206
0.002895 0.003786 0.002836
0.003722 0.004870 0.003645
0.004782 0.006264 0.004684
0.006140 0.008058 0.006012
0.007874 0.010366 0.007708
0.010076 0.013335 0.009859
0.012850 0.017154 0.012563
0.016291 0.022067 0.015906
0.020447 0.028387 0.019918
0.025219 0.036517 0.024466
0.030135 0.046976 0.029012
0.033854 0.060430 0.032082
0.033093 0.077737 0.030117
0.020313 0.100000 0.015000
0.000025 0.000032 0.000024
0.000033 0.000041 0.000031
0.000042 0.000052 0.000039
0.000054 0.000067 0.000050
0.000069 0.000087 0.000065
0.000089 0.000111 0.000084
0.000115 0.000143 0.000107
0.000148 0.000184 0.000138
0.000190 0.000237 0.000178
0.000245 0.000305 0.000229
0.000315 0.000392 0.000294
0.000405 0.000505 0.000379
0.000521 0.000649 0.000487
0.000670 0.000835 0.000626
0.000862 0.001075 0.000806
0.001109 0.001382 0.001037
0.001426 0.001778 0.001333
0.001834 0.002288 0.001715
0.002359 0.002943 0.002206
0.003034 0.003786 0.002836
0.003900 0.004870 0.003645
0.005013 0.006264 0.004684
0.006439 0.008058 0.006012
0.008262 0.010366 0.007708
0.010583 0.013335 0.009859
0.013519 0.017154 0.012563
0.017189 0.022067 0.015906
0.021682 0.028387 0.019918
0.026977 0.036517 0.024466
0.032755 0.046976 0.029012
0.037988 0.060430 0.032082
0.040038 0.077737 0.030117
0.032708 0.100000 0.015000
0.000027 0.000032 0.000024
0.000034 0.000041 0.000031
0.000044 0.000052 0.000039
0.000056 0.000067 0.000050
0.000073 0.000087 0.000065
0.000093 0.000111 0.000084
0.000120 0.000143 0.000107
0.000155 0.000184 0.000138
0.000199 0.000237 0.000178
0.000256 0.000305 0.000229
0.000329 0.000392 0.000294
0.000423 0.000505 0.000379
0.000545 0.000649 0.000487
0.000700 0.000835 0.000626
0.000901 0.001075 0.000806
0.001159 0.001382 0.001037
0.001491 0.001778 0.001333
0.001918 0.002288 0.001715
0.002467 0.002943 0.002206
0.003172 0.003786 0.002836
0.004079 0.004870 0.003645
0.005243 0.006264 0.004684
0.006737 0.008058 0.006012
0.008649 0.010366 0.007708
0.011090 0.013335 0.009859
0.014189 0.017154 0.012563
0.018088 0.022067 0.015906
0.022918 0.028387 0.019918
0.028734 0.036517 0.024466
0.035374 0.046976 0.029012
0.042122 0.060430 0.032082
0.046982 0.077737 0.030117
0.045104 0.100000 0.015000
0.000028 0.000032 0.000024
0.000036 0.000041 0.000031
0.000046 0.000052 0.000039
0.000059 0.000067 0.000050
0.000076 0.000087 0.000065
0.000097 0.000111 0.000084
0.000125 0.000143 0.000107
0.000161 0.000184 0.000138
0.000207 0.000237 0.000178
0.000267 0.000305 0.000229
0.000343 0.000392 0.000294
0.000442 0.000505 0.000379
0.000568 0.000649 0.000487
0.000731 0.000835 0.000626
0.000940 0.001075 0.000806
0.001209 0.001382 0.001037
0.001556 0.001778 0.001333
0.002001 0.002288 0.001715
0.002574 0.002943 0.002206
0.003311 0.003786 0.002836
0.004258 0.004870 0.003645
0.005474 0.006264 0.004684
0.007035 0.008058 0.006012
0.009037 0.010366 0.007708
0.011597 0.013335 0.009859
0.014859 0.017154 0.012563
0.018987 0.022067 0.015906
0.024153 0.028387 0.019918
0.030492 0.036517 0.024466
0.037994 0.046976 0.029012
0.046256 0.060430 0.032082
0.053927 0.077737 0.030117
0.057500 0.100000 0.015000
0.000029 0.000032 0.000024
0.000037 0.000041 0.000031
0.000048 0.000052 0.000039
0.000061 0.000067 0.000050
0.000079 0.000087 0.000065
0.000102 0.000111 0.000084
0.000131 0.000143 0.000107
0.000168 0.000184 0.000138
0.000216 0.000237 0.000178
0.000278 0.000305 0.000229
0.000358 0.000392 0.000294
0.000460 0.000505 0.000379
0.000592 0.000649 0.000487
0.000761 0.000835 0.000626
0.000979 0.001075 0.000806
0.001260 0.001382 0.001037
0.001621 0.001778 0.001333
0.002085 0.002288 0.001715
0.002682 0.002943 0.002206
0.003449 0.003786 0.002836
0.004436 0.004870 0.003645
0.005704 0.006264 0.004684
0.007334 0.008058 0.006012
0.009425 0.010366 0.007708
0.012104 0.013335 0.009859
0.015528 0.017154 0.012563
0.019885 0.022067 0.015906
0.025388 0.028387 0.019918
0.032249 0.036517 0.024466
0.040614 0.046976 0.029012
0.050390 0.060430 0.032082
0.060871 0.077737 0.030117
0.069896 0.100000 0.015000
0.000030 0.000032 0.000024
0.000039 0.000041 0.000031
0.000050 0.000052 0.000039
0.000064 0.000067 0.000050
0.000082 0.000087 0.000065
0.000106 0.000111 0.000084
0.000136 0.000143 0.000107
0.000175 0.000184 0.000138
0.000225 0.000237 0.000178
0.000289 0.000305 0.000229
0.000372 0.000392 0.000294
0.000479 0.000505 0.000379
0.000616 0.000649 0.000487
0.000792 0.000835 0.000626
0.001019 0.001075 0.000806
0.001310 0.001382 0.001037
0.001686 0.001778 0.001333
0.002168 0.002288 0.001715
0.002789 0.002943 0.002206
0.003588 0.003786 0.002836
0.004615 0.004870 0.003645
0.005935 0.006264 0.004684
0.007632 0.008058 0.006012
0.009812 0.010366 0.007708
0.012611 0.013335 0.009859
0.016198 0.017154 0.012563
