assets/luts/ReSyne_Display_v1.cube
TITLE "ReSyne Display (Magnitude/LogFreq/PhaseCos)"
LUT_3D_SIZE 9
DOMAIN_MIN 0.0 0.0 0.0
DOMAIN_MAX 1.0 1.0 1.0
0.000032 0.000024 0.000032
0.000087 0.000065 0.000087
0.000237 0.000178 0.000237
0.000649 0.000487 0.000649
0.001778 0.001333 0.001778
0.004870 0.003645 0.004870
0.013335 0.009859 0.013335
0.036517 0.024466 0.036517
0.100000 0.015000 0.100000
0.000027 0.000024 0.000032
0.000074 0.000065 0.000087
0.000203 0.000178 0.000237
0.000555 0.000487 0.000649
0.001519 0.001333 0.001778
0.004155 0.003645 0.004870
0.011307 0.009859 0.013335
0.029488 0.024466 0.036517
0.050417 0.015000 0.100000
0.000024 0.000025 0.000032
0.000065 0.000069 0.000087
0.000178 0.000188 0.000237
0.000487 0.000514 0.000649
0.001333 0.001408 0.001778
0.003645 0.003849 0.004870
0.009859 0.010438 0.013335
0.024466 0.026475 0.036517
0.015000 0.029167 0.100000
0.000024 0.000030 0.000032
0.000065 0.000081 0.000087
0.000178 0.000222 0.000237
0.000487 0.000609 0.000649
0.001333 0.001667 0.001778
0.003645 0.004564 0.004870
0.009859 0.012466 0.013335
0.024466 0.033505 0.036517
0.015000 0.078750 0.100000
0.000024 0.000032 0.000029
0.000065 0.000087 0.000079
0.000178 0.000237 0.000217
0.000487 0.000649 0.000595
0.001333 0.001778 0.001630
0.003645 0.004870 0.004462
0.009859 0.013335 0.012177
0.024466 0.036517 0.032500
0.015000 0.100000 0.071667
0.000024 0.000032 0.000024
0.000065 0.000087 0.000067
0.000178 0.000237 0.000183
0.000487 0.000649 0.000501
0.001333 0.001778 0.001370
0.003645 0.004870 0.003747
0.009859 0.013335 0.010149
0.024466 0.036517 0.025471
0.015000 0.100000 0.022083
0.000028 0.000032 0.000024
0.000076 0.000087 0.000065
0.000207 0.000237 0.000178
0.000568 0.000649 0.000487
0.001556 0.001778 0.001333
0.004258 0.004870 0.003645
0.011597 0.013335 0.009859
0.030492 0.036517 0.024466
0.057500 0.100000 0.015000
0.000032 0.000031 0.000024
0.000087 0.000085 0.000065
0.000237 0.000232 0.000178
0.000649 0.000636 0.000487
0.001778 0.001741 0.001333
0.004870 0.004768 0.003645
0.013335 0.013046 0.009859
0.036517 0.035513 0.024466
0.100000 0.092917 0.015000
0.000032 0.000026 0.000024
0.000087 0.000072 0.000065
0.000237 0.000198 0.000178
0.000649 0.000541 0.000487
0.001778 0.001482 0.001333
0.004870 0.004053 0.003645
0.013335 0.011018 0.009859
0.036517 0.028483 0.024466
0.100000 0.043333 0.015000
0.000067 0.000050 0.000067
0.000184 0.000138 0.000184
0.000504 0.000378 0.000504
0.001380 0.001035 0.001380
0.003779 0.002833 0.003779
0.010348 0.007746 0.010348
0.028337 0.020951 0.028337
0.077600 0.051991 0.077600
0.212500 0.031875 0.212500
0.000057 0.000050 0.000067
0.000157 0.000138 0.000184
0.000430 0.000378 0.000504
0.001179 0.001035 0.001380
0.003227 0.002833 0.003779
0.008830 0.007746 0.010348
0.024028 0.020951 0.028337
0.062661 0.051991 0.077600
0.107135 0.031875 0.212500
0.000050 0.000053 0.000067
0.000138 0.000146 0.000184
0.000378 0.000399 0.000504
0.001035 0.001092 0.001380
0.002833 0.002991 0.003779
0.007746 0.008180 0.010348
0.020951 0.022182 0.028337
0.051991 0.056259 0.077600
0.031875 0.061979 0.212500
0.000050 0.000063 0.000067
0.000138 0.000173 0.000184
0.000378 0.000472 0.000504
0.001035 0.001294 0.001380
0.002833 0.003542 0.003779
0.007746 0.009698 0.010348
0.020951 0.026491 0.028337
0.051991 0.071197 0.077600
0.031875 0.167344 0.212500
0.000050 0.000067 0.000062
0.000138 0.000184 0.000169
0.000378 0.000504 0.000462
0.001035 0.001380 0.001265
0.002833 0.003779 0.003464
0.007746 0.010348 0.009481
0.020951 0.028337 0.025875
0.051991 0.077600 0.069063
0.031875 0.212500 0.152292
0.000050 0.000067 0.000052
0.000138 0.000184 0.000142
0.000378 0.000504 0.000388
0.001035 0.001380 0.001064
0.002833 0.003779 0.002912
0.007746 0.010348 0.007963
0.020951 0.028337 0.021566
0.051991 0.077600 0.054125
0.031875 0.212500 0.046927
0.000059 0.000067 0.000050
0.000161 0.000184 0.000138
0.000441 0.000504 0.000378
0.001207 0.001380 0.001035
0.003306 0.003779 0.002833
0.009047 0.010348 0.007746
0.024644 0.028337 0.020951
0.064795 0.077600 0.051991
0.122188 0.212500 0.031875
0.000067 0.000066 0.000050
0.000184 0.000180 0.000138
0.000504 0.000493 0.000378
0.001380 0.001351 0.001035
0.003779 0.003700 0.002833
0.010348 0.010131 0.007746
0.028337 0.027722 0.020951
0.077600 0.075465 0.051991
0.212500 0.197448 0.031875
0.000067 0.000056 0.000050
0.000184 0.000153 0.000138
0.000504 0.000420 0.000378
0.001380 0.001150 0.001035
0.003779 0.003149 0.002833
0.010348 0.008614 0.007746
0.028337 0.023413 0.020951
0.077600 0.060527 0.051991
0.212500 0.092083 0.031875
0.000103 0.000077 0.000103
0.000281 0.000211 0.000281
0.000771 0.000578 0.000771
0.002110 0.001583 0.002110
0.005779 0.004333 0.005779
0.015826 0.011847 0.015826
0.043339 0.032042 0.043339
0.118682 0.079515 0.118682
0.325000 0.048750 0.325000
0.000088 0.000077 0.000103
0.000240 0.000211 0.000281
0.000658 0.000578 0.000771
0.001803 0.001583 0.002110
0.004936 0.004333 0.005779
0.013505 0.011847 0.015826
0.036749 0.032042 0.043339
0.095835 0.079515 0.118682
0.163854 0.048750 0.325000
0.000077 0.000081 0.000103
0.000211 0.000223 0.000281
0.000578 0.000610 0.000771
0.001583 0.001671 0.002110
0.004333 0.004574 0.005779
0.011847 0.012511 0.015826
0.032042 0.033925 0.043339
0.079515 0.086043 0.118682
0.048750 0.094792 0.325000
0.000077 0.000096 0.000103
0.000211 0.000264 0.000281
0.000578 0.000723 0.000771
0.001583 0.001979 0.002110
0.004333 0.005418 0.005779
0.011847 0.014832 0.015826
0.032042 0.040515 0.043339
0.079515 0.108890 0.118682
0.048750 0.255938 0.325000
0.000077 0.000103 0.000094
0.000211 0.000281 0.000258
0.000578 0.000771 0.000706
0.001583 0.002110 0.001935
0.004333 0.005779 0.005297
0.011847 0.015826 0.014500
0.032042 0.043339 0.039574
0.079515 0.118682 0.105626
0.048750 0.325000 0.232917
0.000077 0.000103 0.000079
0.000211 0.000281 0.000217
0.000578 0.000771 0.000594
0.001583 0.002110 0.001627
0.004333 0.005779 0.004454
0.011847 0.015826 0.012179
0.032042 0.043339 0.032984
0.079515 0.118682 0.082779
0.048750 0.325000 0.071771
0.000090 0.000103 0.000077
0.000246 0.000281 0.000211
0.000674 0.000771 0.000578
0.001847 0.002110 0.001583
0.005056 0.005779 0.004333
0.013837 0.015826 0.011847
0.037691 0.043339 0.032042
0.099098 0.118682 0.079515
0.186875 0.325000 0.048750
0.000103 0.000101 0.000077
0.000281 0.000276 0.000211
0.000771 0.000755 0.000578
0.002110 0.002067 0.001583
0.005779 0.005659 0.004333
0.015826 0.015495 0.011847
0.043339 0.042398 0.032042
0.118682 0.115418 0.079515
0.325000 0.301979 0.048750
0.000103 0.000086 0.000077
0.000281 0.000235 0.000211
0.000771 0.000642 0.000578
0.002110 0.001759 0.001583
0.005779 0.004815 0.004333
0.015826 0.013174 0.011847
0.043339 0.035808 0.032042
0.118682 0.092571 0.079515
0.325000 0.140833 0.048750
0.000138 0.000104 0.000138
0.000379 0.000284 0.000379
0.001037 0.000778 0.001037
0.002841 0.002131 0.002841
0.007780 0.005834 0.007780
0.021305 0.015948 0.021305
0.058342 0.043134 0.058342
0.159764 0.107040 0.159764
0.437500 0.065625 0.437500
0.000118 0.000104 0.000138
0.000324 0.000284 0.000379
0.000886 0.000778 0.001037
0.002427 0.002131 0.002841
0.006645 0.005834 0.007780
0.018180 0.015948 0.021305
0.049470 0.043134 0.058342
0.129008 0.107040 0.159764
0.220573 0.065625 0.437500
0.000104 0.000110 0.000138
0.000284 0.000300 0.000379
0.000778 0.000821 0.001037
0.002131 0.002249 0.002841
0.005834 0.006158 0.007780
0.015948 0.016841 0.021305
0.043134 0.045668 0.058342
0.107040 0.115827 0.159764
0.065625 0.127604 0.437500
0.000104 0.000130 0.000138
0.000284 0.000355 0.000379
0.000778 0.000973 0.001037
0.002131 0.002663 0.002841
0.005834 0.007293 0.007780
0.015948 0.019966 0.021305
0.043134 0.054540 0.058342
0.107040 0.146583 0.159764
0.065625 0.344531 0.437500
0.000104 0.000138 0.000127
0.000284 0.000379 0.000347
0.000778 0.001037 0.000951
0.002131 0.002841 0.002604
0.005834 0.007780 0.007131
0.015948 0.021305 0.019519
0.043134 0.058342 0.053272
0.107040 0.159764 0.142189
0.065625 0.437500 0.313542
0.000104 0.000138 0.000107
0.000284 0.000379 0.000292
0.000778 0.001037 0.000800
0.002131 0.002841 0.002190
0.005834 0.007780 0.005996
0.015948 0.021305 0.016395
0.043134 0.058342 0.044401
0.107040 0.159764 0.111434
0.065625 0.437500 0.096615
0.000121 0.000138 0.000104
0.000332 0.000379 0.000284
0.000908 0.001037 0.000778
0.002486 0.002841 0.002131
0.006807 0.007780 0.005834
0.018627 0.021305 0.015948
0.050738 0.058342 0.043134
0.133402 0.159764 0.107040
0.251563 0.437500 0.065625
0.000138 0.000135 0.000104
0.000379 0.000371 0.000284
0.001037 0.001016 0.000778
0.002841 0.002782 0.002131
0.007780 0.007618 0.005834
0.021305 0.020858 0.015948
0.058342 0.057074 0.043134
0.159764 0.155370 0.107040
0.437500 0.406510 0.065625
0.000138 0.000115 0.000104
0.000379 0.000316 0.000284
0.001037 0.000865 0.000778
0.002841 0.002367 0.002131
0.007780 0.006482 0.005834
0.021305 0.017734 0.015948
0.058342 0.048203 0.043134
0.159764 0.124614 0.107040
0.437500 0.189583 0.065625
0.000174 0.000130 0.000174
0.000476 0.000357 0.000476
0.001304 0.000978 0.001304
0.003572 0.002679 0.003572
0.009781 0.007334 0.009781
0.026783 0.020049 0.026783
0.073344 0.054225 0.073344
0.200846 0.134564 0.200846
0.550000 0.082500 0.550000
0.000149 0.000130 0.000174
0.000407 0.000357 0.000476
0.001114 0.000978 0.001304
0.003051 0.002679 0.003572
0.008353 0.007334 0.009781
0.022855 0.020049 0.026783
0.062191 0.054225 0.073344
0.162182 0.134564 0.200846
0.277292 0.082500 0.550000
0.000130 0.000138 0.000174
0.000357 0.000377 0.000476
0.000978 0.001033 0.001304
0.002679 0.002827 0.003572
0.007334 0.007741 0.009781
0.020049 0.021172 0.026783
0.054225 0.057412 0.073344
0.134564 0.145611 0.200846
0.082500 0.160417 0.550000
0.000130 0.000163 0.000174
0.000357 0.000447 0.000476
0.000978 0.001223 0.001304
0.002679 0.003348 0.003572
0.007334 0.009169 0.009781
0.020049 0.025100 0.026783
0.054225 0.068564 0.073344
0.134564 0.184275 0.200846
0.082500 0.433125 0.550000
0.000130 0.000174 0.000159
0.000357 0.000476 0.000437
0.000978 0.001304 0.001196
0.002679 0.003572 0.003274
0.007334 0.009781 0.008965
0.020049 0.026783 0.024539
0.054225 0.073344 0.066971
0.134564 0.200846 0.178752
0.082500 0.550000 0.394167
0.000130 0.000174 0.000134
0.000357 0.000476 0.000367
0.000978 0.001304 0.001005
0.002679 0.003572 0.002753
0.007334 0.009781 0.007537
0.020049 0.026783 0.020610
0.054225 0.073344 0.055818
0.134564 0.200846 0.140088
0.082500 0.550000 0.121458
0.000152 0.000174 0.000130
0.000417 0.000476 0.000357
0.001141 0.001304 0.000978
0.003125 0.003572 0.002679
0.008557 0.009781 0.007334
0.023416 0.026783 0.020049
0.063784 0.073344 0.054225
0.167705 0.200846 0.134564
0.316250 0.550000 0.082500
0.000174 0.000170 0.000130
0.000476 0.000466 0.000357
0.001304 0.001277 0.000978
0.003572 0.003497 0.002679
0.009781 0.009577 0.007334
0.026783 0.026222 0.020049
0.073344 0.071750 0.054225
0.200846 0.195322 0.134564
0.550000 0.511042 0.082500
0.000174 0.000145 0.000130
0.000476 0.000397 0.000357
0.001304 0.001087 0.000978
0.003572 0.002976 0.002679
0.009781 0.008149 0.007334
0.026783 0.022294 0.020049
0.073344 0.060598 0.054225
0.200846 0.156658 0.134564
0.550000 0.238333 0.082500
0.000210 0.000157 0.000210
0.000574 0.000430 0.000574
0.001571 0.001178 0.001571
0.004302 0.003227 0.004302
0.011781 0.008834 0.011781
0.032262 0.024150 0.032262
0.088346 0.065317 0.088346
0.241928 0.162089 0.241928
0.662500 0.099375 0.662500
0.000179 0.000157 0.000210
0.000490 0.000430 0.000574
0.001342 0.001178 0.001571
0.003675 0.003227 0.004302
0.010062 0.008834 0.011781
0.027530 0.024150 0.032262
0.074912 0.065317 0.088346
0.195355 0.162089 0.241928
0.334010 0.099375 0.662500
0.000157 0.000166 0.000210
0.000430 0.000454 0.000574
0.001178 0.001244 0.001571
0.003227 0.003406 0.004302
0.008834 0.009325 0.011781
0.024150 0.025502 0.032262
0.065317 0.069155 0.088346
0.162089 0.175395 0.241928
0.099375 0.193229 0.662500
0.000157 0.000196 0.000210
0.000430 0.000538 0.000574
0.001178 0.001473 0.001571
0.003227 0.004033 0.004302
0.008834 0.011044 0.011781
0.024150 0.030234 0.032262
0.065317 0.082589 0.088346
0.162089 0.221968 0.241928
0.099375 0.521719 0.662500
0.000157 0.000210 0.000192
0.000430 0.000574 0.000526
0.001178 0.001571 0.001440
0.003227 0.004302 0.003944
0.008834 0.011781 0.010799
0.024150 0.032262 0.029558
0.065317 0.088346 0.080669
0.162089 0.241928 0.215315
0.099375 0.662500 0.474792
0.000157 0.000210 0.000161
0.000430 0.000574 0.000442
0.001178 0.001571 0.001211
0.003227 0.004302 0.003316
0.008834 0.011781 0.009079
0.024150 0.032262 0.024826
0.065317 0.088346 0.067236
0.162089 0.241928 0.168742
0.099375 0.662500 0.146302
0.000183 0.000210 0.000157
0.000502 0.000574 0.000430
0.001375 0.001571 0.001178
0.003764 0.004302 0.003227
0.010307 0.011781 0.008834
0.028206 0.032262 0.024150
0.076831 0.088346 0.065317
0.202008 0.241928 0.162089
0.380938 0.662500 0.099375
0.000210 0.000205 0.000157
0.000574 0.000562 0.000430
0.001571 0.001538 0.001178
0.004302 0.004213 0.003227
0.011781 0.011535 0.008834
0.032262 0.031586 0.024150
0.088346 0.086427 0.065317
0.241928 0.235275 0.162089
0.662500 0.615573 0.099375
0.000210 0.000175 0.000157
0.000574 0.000478 0.000430
0.001571 0.001309 0.001178
0.004302 0.003585 0.003227
0.011781 0.009816 0.008834
0.032262 0.026854 0.024150
0.088346 0.072993 0.065317
0.241928 0.188702 0.162089
0.662500 0.287083 0.099375
0.000245 0.000184 0.000245
0.000671 0.000503 0.000671
0.001838 0.001378 0.001838
0.005033 0.003774 0.005033
0.013782 0.010334 0.013782
0.037740 0.028251 0.037740
0.103348 0.076408 0.103348
0.283010 0.189613 0.283010
0.775000 0.116250 0.775000
0.000209 0.000184 0.000245
0.000573 0.000503 0.000671
0.001570 0.001378 0.001838
0.004299 0.003774 0.005033
0.011770 0.010334 0.013782
0.032205 0.028251 0.037740
0.087633 0.076408 0.103348
0.228529 0.189613 0.283010
0.390729 0.116250 0.775000
0.000184 0.000194 0.000245
0.000503 0.000531 0.000671
0.001378 0.001455 0.001838
0.003774 0.003984 0.005033
0.010334 0.010908 0.013782
0.028251 0.029833 0.037740
0.076408 0.080898 0.103348
0.189613 0.205180 0.283010
0.116250 0.226042 0.775000
0.000184 0.000230 0.000245
0.000503 0.000629 0.000671
0.001378 0.001723 0.001838
0.003774 0.004718 0.005033
0.010334 0.012920 0.013782
0.028251 0.035368 0.037740
0.076408 0.096613 0.103348
0.189613 0.259661 0.283010
0.116250 0.610313 0.775000
0.000184 0.000245 0.000225
0.000503 0.000671 0.000615
0.001378 0.001838 0.001685
0.003774 0.005033 0.004613
0.010334 0.013782 0.012632
0.028251 0.037740 0.034577
0.076408 0.103348 0.094368
0.189613 0.283010 0.251878
0.116250 0.775000 0.555417
0.000184 0.000245 0.000189
0.000503 0.000671 0.000517
0.001378 0.001838 0.001417
0.003774 0.005033 0.003879
0.010334 0.013782 0.010621
0.028251 0.037740 0.029042
0.076408 0.103348 0.078653
0.189613 0.283010 0.197397
0.116250 0.775000 0.171146
0.000214 0.000245 0.000184
0.000587 0.000671 0.000503
0.001608 0.001838 0.001378
0.004404 0.005033 0.003774
0.012058 0.013782 0.010334
0.032996 0.037740 0.028251
0.089878 0.103348 0.076408
0.236312 0.283010 0.189613
0.445625 0.775000 0.116250
0.000245 0.000240 0.000184
0.000671 0.000657 0.000503
0.001838 0.001800 0.001378
0.005033 0.004928 0.003774
0.013782 0.013494 0.010334
0.037740 0.036949 0.028251
0.103348 0.101103 0.076408
0.283010 0.275227 0.189613
0.775000 0.720104 0.116250
0.000245 0.000204 0.000184
0.000671 0.000559 0.000503
0.001838 0.001532 0.001378
0.005033 0.004194 0.003774
0.013782 0.011483 0.010334
0.037740 0.031414 0.028251
0.103348 0.085388 0.076408
0.283010 0.220746 0.189613
0.775000 0.335833 0.116250
0.000281 0.000210 0.000281
0.000769 0.000576 0.000769
0.002105 0.001578 0.002105
0.005763 0.004322 0.005763
0.015782 0.011834 0.015782
0.043218 0.032352 0.043218
0.118350 0.087500 0.118350
0.324092 0.217138 0.324092
0.887500 0.133125 0.887500
0.000240 0.000210 0.000281
0.000656 0.000576 0.000769
0.001798 0.001578 0.002105
0.004923 0.004322 0.005763
0.013479 0.011834 0.015782
0.036880 0.032352 0.043218
0.100354 0.087500 0.118350
0.261702 0.217138 0.324092
0.447448 0.133125 0.887500
0.000210 0.000222 0.000281
0.000576 0.000608 0.000769
0.001578 0.001666 0.002105
0.004322 0.004562 0.005763
0.011834 0.012492 0.015782
0.032352 0.034163 0.043218
0.087500 0.092641 0.118350
0.217138 0.234964 0.324092
0.133125 0.258854 0.887500
0.000210 0.000263 0.000281
0.000576 0.000721 0.000769
0.001578 0.001973 0.002105
0.004322 0.005403 0.005763
0.011834 0.014795 0.015782
0.032352 0.040502 0.043218
0.087500 0.110637 0.118350
0.217138 0.297354 0.324092
0.133125 0.698906 0.887500
0.000210 0.000281 0.000257
0.000576 0.000769 0.000704
0.001578 0.002105 0.001929
0.004322 0.005763 0.005283
0.011834 0.015782 0.014466
0.032352 0.043218 0.039596
0.087500 0.118350 0.108067
0.217138 0.324092 0.288441
0.133125 0.887500 0.636042
0.000210 0.000281 0.000216
0.000576 0.000769 0.000592
0.001578 0.002105 0.001622
0.004322 0.005763 0.004442
0.011834 0.015782 0.012163
0.032352 0.043218 0.033258
0.087500 0.118350 0.090071
0.217138 0.324092 0.226051
0.133125 0.887500 0.195990
0.000246 0.000281 0.000210
0.000672 0.000769 0.000576
0.001842 0.002105 0.001578
0.005043 0.005763 0.004322
0.013808 0.015782 0.011834
0.037785 0.043218 0.032352
0.102925 0.118350 0.087500
0.270615 0.324092 0.217138
0.510312 0.887500 0.133125
0.000281 0.000275 0.000210
0.000769 0.000753 0.000576
0.002105 0.002061 0.001578
0.005763 0.005643 0.004322
0.015782 0.015453 0.011834
0.043218 0.042313 0.032352
0.118350 0.115779 0.087500
0.324092 0.315179 0.217138
0.887500 0.824635 0.133125
0.000281 0.000234 0.000210
0.000769 0.000640 0.000576
0.002105 0.001754 0.001578
0.005763 0.004803 0.004322
0.015782 0.013150 0.011834
0.043218 0.035974 0.032352
0.118350 0.097783 0.087500
0.324092 0.252789 0.217138
0.887500 0.384583 0.133125
0.000316 0.000237 0.000316
0.000866 0.000649 0.000866
0.002371 0.001779 0.002371
0.006494 0.004870 0.006494
0.017783 0.013334 0.017783
0.048697 0.036453 0.048697
0.133352 0.098591 0.133352
0.365174 0.244663 0.365174
1.000000 0.150000 1.000000
0.000270 0.000237 0.000316
0.000740 0.000649 0.000866
0.002026 0.001779 0.002371
0.005547 0.004870 0.006494
0.015188 0.013334 0.017783
0.041555 0.036453 0.048697
0.113075 0.098591 0.133352
0.294876 0.244663 0.365174
0.504167 0.150000 1.000000
0.000237 0.000250 0.000316
0.000649 0.000686 0.000866
0.001779 0.001877 0.002371
0.004870 0.005141 0.006494
0.013334 0.014075 0.017783
0.036453 0.038494 0.048697
0.098591 0.104385 0.133352
0.244663 0.264748 0.365174
0.150000 0.291667 1.000000
0.000237 0.000296 0.000316
0.000649 0.000812 0.000866
0.001779 0.002223 0.002371
0.004870 0.006088 0.006494
0.013334 0.016671 0.017783
0.036453 0.045636 0.048697
0.098591 0.124662 0.133352
0.244663 0.335046 0.365174
0.150000 0.787500 1.000000
0.000237 0.000316 0.000290
0.000649 0.000866 0.000794
0.001779 0.002371 0.002174
0.004870 0.006494 0.005953
0.013334 0.017783 0.016300
0.036453 0.048697 0.044616
0.098591 0.133352 0.121765
0.244663 0.365174 0.325004
0.150000 1.000000 0.716667
0.000237 0.000316 0.000244
0.000649 0.000866 0.000668
0.001779 0.002371 0.001828
0.004870 0.006494 0.005005
0.013334 0.017783 0.013704
0.036453 0.048697 0.037474
0.098591 0.133352 0.101488
0.244663 0.365174 0.254705
0.150000 1.000000 0.220833
0.000277 0.000316 0.000237
0.000758 0.000866 0.000649
0.002075 0.002371 0.001779
0.005682 0.006494 0.004870
0.015558 0.017783 0.013334
0.042575 0.048697 0.036453
0.115972 0.133352 0.098591
0.304918 0.365174 0.244663
0.575000 1.000000 0.150000
0.000316 0.000310 0.000237
0.000866 0.000848 0.000649
0.002371 0.002322 0.001779
0.006494 0.006359 0.004870
0.017783 0.017412 0.013334
0.048697 0.047676 0.036453
0.133352 0.130455 0.098591
0.365174 0.355131 0.244663
1.000000 0.929167 0.150000
0.000316 0.000264 0.000237
0.000866 0.000722 0.000649
0.002371 0.001976 0.001779
0.006494 0.005411 0.004870
0.017783 0.014817 0.013334
0.048697 0.040534 0.036453
0.133352 0.110178 0.098591
0.365174 0.284833 0.244663
1.000000 0.433333 0.150000
