assets/luts/ReSyne_Display_v1.cube
TITLE "ReSyne Display (Magnitude/LogFreq/PhaseCos)"
LUT_3D_SIZE 5
DOMAIN_MIN 0.0 0.0 0.0
DOMAIN_MAX 1.0 1.0 1.0
0.000032 0.000024 0.000032
0.000237 0.000178 0.000237
0.001778 0.001333 0.001778
0.013335 0.009859 0.013335
0.100000 0.015000 0.100000
0.000024 0.000025 0.000032
0.000178 0.000188 0.000237
0.001333 0.001408 0.001778
0.009859 0.010438 0.013335
0.015000 0.029167 0.100000
0.000024 0.000032 0.000029
0.000178 0.000237 0.000217
0.001333 0.001778 0.001630
0.009859 0.013335 0.012177
0.015000 0.100000 0.071667
0.000028 0.000032 0.000024
0.000207 0.000237 0.000178
0.001556 0.001778 0.001333
0.011597 0.013335 0.009859
0.057500 0.100000 0.015000
0.000032 0.000026 0.000024
0.000237 0.000198 0.000178
0.001778 0.001482 0.001333
0.013335 0.011018 0.009859
0.100000 0.043333 0.015000
0.000103 0.000077 0.000103
0.000771 0.000578 0.000771
0.005779 0.004333 0.005779
0.043339 0.032042 0.043339
0.325000 0.048750 0.325000
0.000077 0.000081 0.000103
0.000578 0.000610 0.000771
0.004333 0.004574 0.005779
0.032042 0.033925 0.043339
0.048750 0.094792 0.325000
0.000077 0.000103 0.000094
0.000578 0.000771 0.000706
0.004333 0.005779 0.005297
0.032042 0.043339 0.039574
0.048750 0.325000 0.232917
0.000090 0.000103 0.000077
0.000674 0.000771 0.000578
0.005056 0.005779 0.004333
0.037691 0.043339 0.032042
0.186875 0.325000 0.048750
0.000103 0.000086 0.000077
0.000771 0.000642 0.000578
0.005779 0.004815 0.004333
0.043339 0.035808 0.032042
0.325000 0.140833 0.048750
0.000174 0.000130 0.000174
0.001304 0.000978 0.001304
0.009781 0.007334 0.009781
0.073344 0.054225 0.073344
0.550000 0.082500 0.550000
0.000130 0.000138 0.000174
0.000978 0.001033 0.001304
0.007334 0.007741 0.009781
0.054225 0.057412 0.073344
0.082500 0.160417 0.550000
0.000130 0.000174 0.000159
0.000978 0.001304 0.001196
0.007334 0.009781 0.008965
0.054225 0.073344 0.066971
0.082500 0.550000 0.394167
0.000152 0.000174 0.000130
0.001141 0.001304 0.000978
0.008557 0.009781 0.007334
0.063784 0.073344 0.054225
0.316250 0.550000 0.082500
0.000174 0.000145 0.000130
0.001304 0.001087 0.000978
0.009781 0.008149 0.007334
0.073344 0.060598 0.054225
0.550000 0.238333 0.082500
0.000245 0.000184 0.000245
0.001838 0.001378 0.001838
0.013782 0.010334 0.013782
0.103348 0.076408 0.103348
0.775000 0.116250 0.775000
0.000184 0.000194 0.000245
0.001378 0.001455 0.001838
0.010334 0.010908 0.013782
0.076408 0.080898 0.103348
0.116250 0.226042 0.775000
0.000184 0.000245 0.000225
0.001378 0.001838 0.001685
0.010334 0.013782 0.012632
0.076408 0.103348 0.094368
0.116250 0.775000 0.555417
0.000214 0.000245 0.000184
0.001608 0.001838 0.001378
0.012058 0.013782 0.010334
0.089878 0.103348 0.076408
0.445625 0.775000 0.116250
0.000245 0.000204 0.000184
0.001838 0.001532 0.001378
0.013782 0.011483 0.010334
0.103348 0.085388 0.076408
0.775000 0.335833 0.116250
0.000316 0.000237 0.000316
0.002371 0.001779 0.002371
0.017783 0.013334 0.017783
0.133352 0.098591 0.133352
1.000000 0.150000 1.000000
0.000237 0.000250 0.000316
0.001779 0.001877 0.002371
0.013334 0.014075 0.017783
0.098591 0.104385 0.133352
0.150000 0.291667 1.000000
0.000237 0.000316 0.000290
0.001779 0.002371 0.002174
0.013334 0.017783 0.016300
0.098591 0.133352 0.121765
0.150000 1.000000 0.716667
0.000277 0.000316 0.000237
0.002075 0.002371 0.001779
0.015558 0.017783 0.013334
0.115972 0.133352 0.098591
0.575000 1.000000 0.150000
0.000316 0.000264 0.000237
0.002371 0.001976 0.001779
0.017783 0.014817 0.013334
0.133352 0.110178 0.098591
1.000000 0.433333 0.150000
